X:4735
T:Polska e Erik Nilsson
A:Jmtland
M:3/4
O:Sweden
R:Polska
Z:Carol Turner
%%TUNEURL: http://www.leeds.ac.uk/music/Info/RRTuneBk/gettune/00000eeb.html
%%ID:00000eeb
K:D
A|\
d>A F>A d>f | ab/a/ (3geg f>d | B>b  g>f e>d | (3cBc (3dcB A>A |
d>A F>A d>f | ab/a/ (3geg f>d | B>b  g>f e>d | (3cBc d3 ::
f |\
g>f e>d c>B | (3AFA (3GEG F2 | (3AFA (3BGB (3cAc | e>c d>e f>d |
g>f e>d c>B | A>b  g>f  e>c |  (3ABc (3def (3gef | (3dec d3:|
